src/assets/outline/EmojiNormal.svg

<svg width="24" height="24" viewBox="0 0 24 24"  xmlns="http://www.w3.org/2000/svg">
<path d="M15 22.75H9C3.57 22.75 1.25 20.43 1.25 15V9C1.25 3.57 3.57 1.25 9 1.25H15C20.43 1.25 22.75 3.57 22.75 9V15C22.75 20.43 20.43 22.75 15 22.75ZM9 2.75C4.39 2.75 2.75 4.39 2.75 9V15C2.75 19.61 4.39 21.25 9 21.25H15C19.61 21.25 21.25 19.61 21.25 15V9C21.25 4.39 19.61 2.75 15 2.75H9Z" />
<path d="M8.81994 9.75043C7.96994 9.75043 7.11994 9.43043 6.46994 8.78043C6.17994 8.49043 6.17994 8.01043 6.46994 7.72043C6.75994 7.43043 7.23994 7.43043 7.52994 7.72043C8.23994 8.43043 9.39994 8.43043 10.1099 7.72043C10.3999 7.43043 10.8799 7.43043 11.1699 7.72043C11.4599 8.01043 11.4599 8.49043 11.1699 8.78043C10.5199 9.42043 9.66994 9.75043 8.81994 9.75043Z" />
<path d="M15.1798 9.75043C14.3298 9.75043 13.4798 9.43043 12.8298 8.78043C12.5398 8.49043 12.5398 8.01043 12.8298 7.72043C13.1198 7.43043 13.5998 7.43043 13.8898 7.72043C14.5998 8.43043 15.7598 8.43043 16.4698 7.72043C16.7598 7.43043 17.2398 7.43043 17.5298 7.72043C17.8198 8.01043 17.8198 8.49043 17.5298 8.78043C16.8798 9.42043 16.0298 9.75043 15.1798 9.75043Z" />
<path d="M12 19.15C9.1 19.15 6.75 16.79 6.75 13.9C6.75 12.99 7.49 12.25 8.4 12.25H15.6C16.51 12.25 17.25 12.99 17.25 13.9C17.25 16.79 14.9 19.15 12 19.15ZM8.4 13.75C8.32 13.75 8.25 13.82 8.25 13.9C8.25 15.97 9.93 17.65 12 17.65C14.07 17.65 15.75 15.97 15.75 13.9C15.75 13.82 15.68 13.75 15.6 13.75H8.4Z" />
</svg>

<?xml version="1.0" encoding="UTF-8"?>
<svg width="24" height="24" viewBox="0 0 24 24" xmlns="http://www.w3.org/2000/svg">
 <path d="m15 22.75h-6c-5.43 0-7.75-2.32-7.75-7.75v-6c0-5.43 2.32-7.75 7.75-7.75h6c5.43 0 7.75 2.32 7.75 7.75v6c0 5.43-2.32 7.75-7.75 7.75zm-6-20c-4.61 0-6.25 1.64-6.25 6.25v6c0 4.61 1.64 6.25 6.25 6.25h6c4.61 0 6.25-1.64 6.25-6.25v-6c0-4.61-1.64-6.25-6.25-6.25h-6z"/>
 <path d="m8.8199 9.7504c-0.85 0-1.7-0.32-2.35-0.97-0.29-0.29-0.29-0.77 0-1.06s0.77-0.29 1.06 0c0.71 0.71 1.87 0.71 2.58 0 0.29-0.29 0.77-0.29 1.06 0s0.29 0.77 0 1.06c-0.65 0.64-1.5 0.97-2.35 0.97z"/>
 <path d="m15.18 9.7504c-0.85 0-1.7-0.32-2.35-0.97-0.29-0.29-0.29-0.77 0-1.06s0.77-0.29 1.06 0c0.71 0.71 1.87 0.71 2.58 0 0.29-0.29 0.77-0.29 1.06 0s0.29 0.77 0 1.06c-0.65 0.64-1.5 0.97-2.35 0.97z"/>
 <path d="m12 19.15c-2.9 0-5.25-2.36-5.25-5.25 0-0.91 0.74-1.65 1.65-1.65h7.2c0.91 0 1.65 0.74 1.65 1.65 0 2.89-2.35 5.25-5.25 5.25zm-3.6-5.4c-0.08 0-0.15 0.07-0.15 0.15 0 2.07 1.68 3.75 3.75 3.75s3.75-1.68 3.75-3.75c0-0.08-0.07-0.15-0.15-0.15h-7.2z"/>
</svg>
